ix/bluetooth-circle_broken.svg

<svg viewBox="0 0 24 24" fill="none" xmlns="http://www.w3.org/2000/svg" height="1em" width="1em">
  <path d="M8.58984 15.56L15.2098 9.49002C15.4898 9.24002 15.4798 8.84004 15.1898 8.60004L13.1299 6.88004C12.5899 6.43004 12.1599 6.64003 12.1599 7.34003V16.67C12.1599 17.37 12.5999 17.57 13.1299 17.13L15.1898 15.41C15.4798 15.17 15.4898 14.77 15.2098 14.52L8.58984 8.45005" stroke="#292D32" stroke-width="1.5" stroke-miterlimit="10" stroke-linecap="round" stroke-linejoin="round"/>
  <path d="M4 6C2.75 7.67 2 9.75 2 12C2 17.52 6.48 22 12 22C17.52 22 22 17.52 22 12C22 6.48 17.52 2 12 2C10.57 2 9.2 2.30001 7.97 2.85001" stroke="#292D32" stroke-width="1.5" stroke-linecap="round" stroke-linejoin="round"/>
</svg>

<svg viewBox="0 0 24 24" fill="none" xmlns="http://www.w3.org/2000/svg" height="1em" width="1em">
  <path d="m8.59 15.56 6.62-6.07a.57.57 0 0 0-.02-.89l-2.06-1.72c-.54-.45-.97-.24-.97.46v9.33c0 .7.44.9.97.46l2.06-1.72c.29-.24.3-.64.02-.89L8.59 8.45" stroke="#292D32" stroke-width="1.5" stroke-miterlimit="10" stroke-linecap="round" stroke-linejoin="round"/>
  <path d="M4 6c-1.25 1.67-2 3.75-2 6 0 5.52 4.48 10 10 10s10-4.48 10-10S17.52 2 12 2c-1.43 0-2.8.3-4.03.85" stroke="#292D32" stroke-width="1.5" stroke-linecap="round" stroke-linejoin="round"/>
</svg>
